tools/download-figma-icons/icons/outlined-medium/surface-25.svg

<svg width="24" height="24" viewBox="0 0 24 24" fill="none" xmlns="http://www.w3.org/2000/svg">
<path opacity="0.2" d="M12.0345 18.7496C11.9137 18.7496 11.793 18.7204 11.682 18.6619L0.3975 12.6619C0.153 12.5314 0 12.2764 0 11.9989C0 11.7214 0.15375 11.4664 0.39975 11.3366L11.6805 5.33888C11.9018 5.22038 12.1665 5.22038 12.3878 5.33888L23.6033 11.3389C23.847 11.4694 23.9993 11.7236 23.9993 12.0004C23.9993 12.2771 23.847 12.5314 23.6033 12.6619L12.3878 18.6619C12.2775 18.7211 12.1552 18.7504 12.0338 18.7504L12.0345 18.7496ZM2.35125 12.0019L12.0338 17.1491L21.66 11.9996L12.0345 6.85013L2.35125 12.0019Z" fill="black"/>
<path d="M12.0165 18.7504C11.8957 18.7504 11.775 18.7211 11.664 18.6626L6.0225 15.6626C5.778 15.5321 5.625 15.2771 5.625 14.9996C5.625 14.7221 5.77875 14.4671 6.02475 14.3374L11.6632 11.3389C11.8845 11.2204 12.1492 11.2204 12.3705 11.3389L17.979 14.3389C18.2227 14.4694 18.375 14.7236 18.375 15.0004C18.375 15.2771 18.2227 15.5314 17.979 15.6619L12.3705 18.6619C12.2602 18.7211 12.138 18.7504 12.0165 18.7504ZM7.97625 15.0026L12.0165 17.1499L16.035 15.0004L12.0173 12.8509L7.97625 15.0026Z" fill="black"/>
</svg>

<svg xmlns="http://www.w3.org/2000/svg" width="24" height="24" fill="none" viewBox="0 0 24 24"><path fill="currentColor" d="M12.035 18.75a.76.76 0 0 1-.353-.088l-11.284-6A.752.752 0 0 1 .4 11.337l11.28-5.998a.75.75 0 0 1 .708 0l11.215 6a.75.75 0 0 1 0 1.323l-11.215 6a.75.75 0 0 1-.354.088M2.35 12.002l9.683 5.147L21.66 12l-9.625-5.15z" opacity=".2"/><path fill="currentColor" d="M12.017 18.75a.76.76 0 0 1-.353-.087l-5.641-3a.752.752 0 0 1 .002-1.326l5.638-2.998a.75.75 0 0 1 .707 0l5.609 3a.75.75 0 0 1 0 1.323l-5.608 3a.75.75 0 0 1-.354.088m-4.04-3.747 4.04 2.147L16.035 15l-4.018-2.15z"/></svg>
